!!!SOCIAL_FUNCTION:	songs with the corn dance
!!!PDT:	1956
!!!OTL: No_6_Corn_Dance_Song_(b).krn
!!!LANG: Non-Tone
!!!LING_GROUP: Muskogean
!!!REG: Florida
**kern
*staff1
=1-
*clefF4
*k[b-e-a-]
*M2/4
4r
8B-\L
8B-\J
=2
2B-\
=3
8A-\
8r
4B-\
=4
8F\L
8E-\J
8E-\L
8E-\J
=5||
*M3/4
4E-\
8E-\
8r
8A-\L
8F\J
=6
4.A-\
8F\
8A-\L
8F\J
=7
8E-\L
8D\J
8E-\L
8D\J
8E-\L
8D\J
=8||
*M2/4
8E-\
8r
8E-\L
8D\J
=9||
*M3/4
4E-\
4D\
4BB-/
=10
4E-\
8BB-/L
8BB-/J
4BB-/
=11||
*M2/4
4BB-/
4r
=12
8G\L
8F\J
8G\L
8F\J
=13
4F\
8F\L
8D\J
=14
8D\L
8D\J
4D\
=15||
*M3/4
2D\
4D\
=16||
*M2/4
2D\
=17
8D\L
8D\J
4D\
=18
4D\
4D\
=19||
*M3/4
(2B-\
4E-\)
=20||
*M2/4
2B-\
=21
4.r
8G\
=22||
*M3/8
8B-\L
8B-\
8B-\J
=23||
*M2/4
8B-\L
8A-\J
8A-\L
8F\J
=24||
*M5/8
4.A-\
16F\
16r
8F\
=25||
*M3/8
8A-\L
8A-\
8A-\J
=26||
*M3/4
8E-\L
8D\J
8E-\L
8D\J
8E-\L
8D\J
=27||
*M3/8
8E-\
8.r
16E-\
=28
8E-\L
8G\
8E-\J
=29||
*M2/4
8E-\L
8D\J
8E-/L
8BB-/J
=30
4BB-/
4BB-/
=31
8E-/L
8BB-/J
8E-\L
8E-\J
=32
4BB-/
4BB-/
=33
4BB-/
4BB-/
=34
4.BB-/
8r
=35
8E-/L
8BB-/J
8BB-/L
8E-/J
=36
4BB-/
8BB-/
8r
=37
4BB-/
4BB-/
=38
4BB-/
4BB-/
=39
2B-\
*-
